resources/icons/16px/lengthen-text.svg

<svg xmlns="http://www.w3.org/2000/svg" viewBox="0 0 16 16">
  <path d="M1 9h14c.55 0 1-.45 1-1s-.45-1-1-1H1c-.55 0-1 .45-1 1s.45 1 1 1m4 3H1c-.55 0-1 .45-1 1s.45 1 1 1h4c.55 0 1-.45 1-1s-.45-1-1-1m7-1c0 .28.11.53.29.71l.3.29H9c-.55 0-1 .45-1 1s.45 1 1 1h3.59l-.29.29c-.19.18-.3.43-.3.71a1.003 1.003 0 0 0 1.71.71l2-2c.18-.18.29-.43.29-.71s-.11-.53-.29-.71l-2-2A1.003 1.003 0 0 0 12 11M1 4h14c.55 0 1-.45 1-1s-.45-1-1-1H1c-.55 0-1 .45-1 1s.45 1 1 1"/>
</svg>

<svg width="16" height="16" viewBox="0 0 16 16" fill="none" xmlns="http://www.w3.org/2000/svg">
<path fill-rule="evenodd" clip-rule="evenodd" d="M1 9H15C15.55 9 16 8.55 16 8C16 7.45 15.55 7 15 7H1C0.45 7 0 7.45 0 8C0 8.55 0.45 9 1 9ZM5 12H1C0.45 12 0 12.45 0 13C0 13.55 0.45 14 1 14H5C5.55 14 6 13.55 6 13C6 12.45 5.55 12 5 12ZM12 11C12 11.28 12.11 11.53 12.29 11.71L12.59 12H9C8.45 12 8 12.45 8 13C8 13.55 8.45 14 9 14H12.59L12.3 14.29C12.11 14.47 12 14.72 12 15C12 15.55 12.45 16 13 16C13.28 16 13.53 15.89 13.71 15.71L15.71 13.71C15.89 13.53 16 13.28 16 13C16 12.72 15.89 12.47 15.71 12.29L13.71 10.29C13.53 10.11 13.28 10 13 10C12.45 10 12 10.45 12 11ZM1 4H15C15.55 4 16 3.55 16 3C16 2.45 15.55 2 15 2H1C0.45 2 0 2.45 0 3C0 3.55 0.45 4 1 4Z" fill="#111418"/>
</svg>
